src/assets/top/ShortHairShaggy.svg

<svg width='280px' height='280px' viewBox='0 0 280 280' version='1.1' xmlns='http://www.w3.org/2000/svg'>
      <g id='Top' strokeWidth='1' fillRule='evenodd'>
        <defs>
          <rect id='path2' x='0' y='0' width='264' height='280' />
          <filter
            x='-0.8%'
            y='-2.0%'
            width='101.5%'
            height='108.0%'
            filterUnits='objectBoundingBox'
            id='filter1'>
            <feOffset
              dx='0'
              dy='2'
              in='SourceAlpha'
              result='shadowOffsetOuter1'
            />
            <feColorMatrix
              values='0 0 0 0 0   0 0 0 0 0   0 0 0 0 0  0 0 0 0.16 0'
              type='matrix'
              in='shadowOffsetOuter1'
              result='shadowMatrixOuter1'
            />
            <feMerge>
              <feMergeNode in='shadowMatrixOuter1' />
              <feMergeNode in='SourceGraphic' />
            </feMerge>
          </filter>
          <path
            d='M198.74696,37.856181 C193.606255,34.0244119 187.528383,30.7396605 181.187893,29.4782789 C174.741035,28.1960616 170.829392,27.8846292 164.483286,29.4052984 C162.85043,29.796545 162.299428,30.1854765 160.862131,29.2568033 C159.651446,28.4743102 151.200134,19.7668788 125.441738,24.5998777 C99.4069464,29.4847361 91.6728211,68.675365 82.0154166,70.1662691 C78.5349852,70.703365 74.2336661,69.781637 74.0992189,67.6388757 C70.1355043,73.6726057 69.0913088,81.6460323 70.7717335,88.7129442 C72.2186099,94.7989286 75.2686121,100.517478 80.7607964,103.849523 C85.4865987,106.716901 92.0203357,107.966046 97.4817987,107.437218 C99.9669245,107.196782 102.227091,106.673576 104.513684,105.671152 C107.272659,104.461694 109.470722,102.280238 112.177835,101.127995 C109.351471,103.576015 106.275372,105.735312 103.001731,107.546357 C101.362599,108.452872 99.6980301,109.07761 97.8887739,109.570058 C96.6533133,109.906073 94.127556,111.05104 92.9327267,110.752066 C100.740244,112.148383 108.093217,110.931649 115.252282,107.589351 C118.483309,106.08125 121.59079,104.256976 124.44325,102.112561 C127.276221,99.9826977 130.537639,97.8062025 132.753871,95.0036468 C131.823641,96.2071517 133.450882,94.4169423 133.665931,94.1980029 C134.274082,93.578226 134.869349,92.9458816 135.453055,92.302954 C136.455298,91.1993278 137.450603,90.0751967 138.383805,88.9120401 C140.37772,86.426318 142.234875,83.8298033 143.891185,81.1086057 C145.568637,78.352682 152.249704,67.2357231 154.266412,64.6190342 C152.361358,70.327001 150.286511,76.0372828 147.858864,81.5445 C152.572444,80.0744315 157.142657,76.0002417 160.15401,72.2035294 C163.545911,67.9275978 165.554691,62.9359795 166.262273,57.5379012 C170.087576,67.953725 179.047309,76.1675881 188.294435,81.8328914 C186.29094,78.1026546 183.238626,74.9478777 181.242068,71.1548033 C190.433037,80.4838679 205.809898,85.0481908 209.837367,98.7289227 C210.869671,93.9714569 214.189889,90.1482867 215.184533,85.2955724 C216.28885,79.9070851 217.081329,74.1868816 216.90592,68.6796644 C216.508524,56.4379129 208.273882,44.9574883 198.74696,37.856181 Z'
            id='path1'
          />
        </defs>
        <mask id='mask2' fill='white'>
          <use href='#path2' />
        </mask>
        <g id='Mask' />
        <g id='Top/Short-Hair/Shaggy' mask='url("#mask2")'>
          <g transform='translate(-1.000000, 0.000000)'>
            <mask id='mask1' fill='white'>
              <use href='#path1' transform='scale(-1, 1)' />
            </mask>
            {/*XXX: some how the mask is broken, fix it later.*/}
            <use
              class='CustomColor'
              stroke='none'
              fill='#28354B'
              fillRule='evenodd'
              transform='translate(143.465161, 67.234158) scale(-1, 1) translate(-143.465161, -67.234158) '
              href='#path1'
            />
            <HairColor maskID='mask1' />
          </g>
        </g>
      </g>
</svg>

<svg width="280" height="280" xmlns="http://www.w3.org/2000/svg"><defs><path id="a" d="M0 0h264v280H0z"/><path d="M198.747 37.856c-5.14-3.832-11.219-7.116-17.56-8.378-6.446-1.282-10.358-1.593-16.704-.073-1.633.392-2.184.78-3.62-.148-1.212-.783-9.663-9.49-35.421-4.657-26.035 4.885-33.77 44.075-43.427 45.566-3.48.537-7.781-.384-7.916-2.527-3.963 6.034-5.008 14.007-3.327 21.074 1.447 6.086 4.497 11.804 9.989 15.137 4.726 2.867 11.26 4.116 16.72 3.587 2.486-.24 4.746-.763 7.033-1.766 2.759-1.21 4.957-3.39 7.664-4.543a53.85 53.85 0 01-9.176 6.418c-1.64.907-3.304 1.532-5.113 2.024-1.236.336-3.761 1.481-4.956 1.182 7.807 1.396 15.16.18 22.32-3.163 3.23-1.508 6.338-3.332 9.19-5.476 2.833-2.13 6.095-4.307 8.31-7.11-.93 1.204.698-.586.913-.805a67.183 67.183 0 001.787-1.895c1.002-1.104 1.998-2.228 2.93-3.391 1.995-2.486 3.852-5.082 5.508-7.803 1.678-2.756 8.359-13.873 10.375-16.49-1.905 5.708-3.98 11.418-6.407 16.925 4.713-1.47 9.284-5.544 12.295-9.34 3.392-4.276 5.4-9.268 6.108-14.666 3.826 10.416 12.785 18.63 22.032 24.295-2.003-3.73-5.055-6.885-7.052-10.678 9.191 9.329 24.568 13.893 28.595 27.574 1.033-4.758 4.353-8.58 5.348-13.433 1.104-5.389 1.896-11.11 1.72-16.616-.396-12.242-8.631-23.723-18.158-30.824z" id="c"/></defs><mask id="b" fill="#fff"><use href="#a"/></mask><g mask="url(&quot;#b&quot;)"><g transform="translate(-1)">{/*XXX: some how the mask is broken, fix it later.*/}<use class="CustomColor" fill="#28354B" transform="matrix(-1 0 0 1 286.93 0)" href="#c"/></g></g></svg>
